X: 10563
T: BLACKSMITH'S HORNPIPE
C: Arranged by W. B. Laybourn
R: hornpipe, reel
B: K\"ohler's Violin Repository, v.1, 1885 p.56 #3
F: http://www.archive.org/details/klersviolinrepos01edin
Z: 2011 John Chambers <jc:trillian.mit.edu>
M: C|
L: 1/8
K: A
((3uefg) | aece Acea | fdBG A2(Bc) | (de)fe (dc)BA | GAFG
E2((3efg) | aece Acea | fdBG A2(Bc) | dfed cBAG | B2A2 A2 :|
|: (ued) | ceAe ceAe | dfBf dfBf | ceAe ceAe | GBEB
GBEB | ceAe ceAe | dfBf dfBf | .e(ag)(f e)(dc)(B | A2){g}a2 A2 :|

%%sep 2 1 500

